X: 10811
T: Dragonfly, The
R: jig
M: 6/8
K: Dmixolydian
|:Adf d2 d|c2 c BAG|Adf d2 d|g2 g =fed|
Adf d2 d|c2 c BAG|ABA AGE|cGE EDD:|
|:Add Add|=f2 e dcA|Acc AcA|GGG =FED|
Add Add|g2 g =fed|AcA AGE|cGE EDD:|

